icons/Color/scalable/view-refresh.svg

<svg height="16" viewBox="0 0 16 16" width="16" xmlns="http://www.w3.org/2000/svg"><g transform="translate(0 -1036.3622)"><path d="m13.669922.76171875a1.1490108 1.1490108 0 0 0 -1.13086 1.16601565v.9472656c-.95846-.851734-2.137276-1.4319396-3.414062-1.6445312-.7619202-.1268382-1.5554266-.1271062-2.3515625.0175781-3.1845382.5768989-5.5754015 3.299712-5.7402344 6.53125-.16483438 3.2316141 1.9381632 6.1363751 5.0507813 6.9667971 3.1126188.830345 6.4220996-.632203 7.9394536-3.503906l-2.019532-1.050782c-1.021381 1.933056-3.2163582 2.901424-5.3066404 2.34375-2.0902829-.557521-3.4899378-2.487287-3.3789062-4.6640622.1110293-2.1766983 1.7015017-3.9857158 3.8398437-4.3730469 1.6314769-.2955195 3.2293969.3023028 4.2617189 1.4921875h-1.9453126a1.149414 1.149414 0 1 0 0 2.2988281h5.3613286v-5.3613281a1.1490108 1.1490108 0 0 0 -1.166016-1.16601565z" fill="#73d216" stroke="#4e9a06" stroke-width=".5" transform="matrix(1.00616742832 0 0 .97855424149 .22105742631 1036.46161611945)"/><path d="m0 1036.3622h16v16h-16z" fill="none"/></g></svg>

<?xml version="1.0" encoding="UTF-8" standalone="no"?>
<svg
   xmlns:dc="http://purl.org/dc/elements/1.1/"
   xmlns:cc="http://creativecommons.org/ns#"
   xmlns:rdf="http://www.w3.org/1999/02/22-rdf-syntax-ns#"
   xmlns:svg="http://www.w3.org/2000/svg"
   xmlns="http://www.w3.org/2000/svg"
   xmlns:sodipodi="http://sodipodi.sourceforge.net/DTD/sodipodi-0.dtd"
   xmlns:inkscape="http://www.inkscape.org/namespaces/inkscape"
   width="16"
   height="16"
   viewBox="0 0 16 16"
   id="svg30571"
   version="1.1"
   inkscape:version="0.92pre1 unknown"
   sodipodi:docname="gimp-reverta.svg">
  <defs
     id="defs30573" />
  <sodipodi:namedview
     id="base"
     pagecolor="#ffffff"
     bordercolor="#666666"
     borderopacity="1"
     inkscape:pageopacity="0"
     inkscape:pageshadow="2"
     inkscape:zoom="21.232704"
     inkscape:cx="7.2618067"
     inkscape:cy="9.375823"
     inkscape:document-units="px"
     inkscape:current-layer="layer1"
     showgrid="true"
     units="px"
     inkscape:snap-page="true"
     inkscape:snap-bbox="true"
     inkscape:bbox-paths="true"
     inkscape:bbox-nodes="true"
     inkscape:snap-bbox-edge-midpoints="true"
     inkscape:snap-bbox-midpoints="true"
     inkscape:object-paths="true"
     inkscape:snap-intersection-paths="true"
     inkscape:object-nodes="true"
     inkscape:snap-smooth-nodes="true"
     inkscape:snap-midpoints="true"
     inkscape:snap-object-midpoints="true"
     inkscape:snap-center="true"
     inkscape:snap-text-baseline="true"
     showborder="false"
     inkscape:window-width="1606"
     inkscape:window-height="871"
     inkscape:window-x="0"
     inkscape:window-y="27"
     inkscape:window-maximized="0"
     showguides="true">
    <inkscape:grid
       type="xygrid"
       id="grid4240" />
  </sodipodi:namedview>
  <metadata
     id="metadata30576">
    <rdf:RDF>
      <cc:Work
         rdf:about="">
        <dc:format>
          image/svg+xml
        </dc:format>
        <dc:type
           rdf:resource="http://purl.org/dc/dcmitype/StillImage" />
        <dc:creator>
          <cc:Agent>
            <dc:title>Klaus Staedtler       </dc:title>
          </cc:Agent>
        </dc:creator>
        <dc:title></dc:title>
      </cc:Work>
    </rdf:RDF>
  </metadata>
  <g
     inkscape:label="Layer 1"
     inkscape:groupmode="layer"
     id="layer1"
     transform="translate(0,-1036.3622)">
    <g
       id="g4237">
      <g
         style="fill:#4e9a06"
         transform="matrix(1.0376102,0,0,1.0091341,0.21343527,-9.8486241)"
         id="g3946">
        <g
           style="fill:#4e9a06"
           id="refresh"
           transform="matrix(0.74272062,0,0,0.74272062,31.29055,291.82008)">
          <path
             id="path4874"
             transform="matrix(1.3056012,0,0,1.3056012,-42.119746,1003.0953)"
             d="M 13.669922,0.76171875 A 1.1490108,1.1490108 0 0 0 12.539062,1.9277344 V 2.875 C 11.580602,2.023266 10.401786,1.4430604 9.125,1.2304688 8.3630798,1.1036306 7.5695734,1.1033626 6.7734375,1.2480469 3.5888993,1.8249458 1.198036,4.5477589 1.0332031,7.7792969 0.86836872,11.010911 2.9713663,13.915672 6.0839844,14.746094 9.1966032,15.576439 12.506084,14.113891 14.023438,11.242188 L 12.003906,10.191406 C 10.982525,12.124462 8.7875478,13.09283 6.6972656,12.535156 4.6069827,11.977635 3.2073278,10.047869 3.3183594,7.8710938 3.4293887,5.6943955 5.0198611,3.885378 7.1582031,3.4980469 8.78968,3.2025274 10.3876,3.8003497 11.419922,4.9902344 H 9.4746094 a 1.149414,1.149414 0 1 0 0,2.2988281 H 14.835938 V 1.9277344 A 1.1490108,1.1490108 0 0 0 13.669922,0.76171875 Z"
             style="color:#000000;font-style:normal;font-variant:normal;font-weight:normal;font-stretch:normal;font-size:medium;line-height:normal;font-family:sans-serif;text-indent:0;text-align:start;text-decoration:none;text-decoration-line:none;text-decoration-style:solid;text-decoration-color:#000000;letter-spacing:normal;word-spacing:normal;text-transform:none;writing-mode:lr-tb;direction:ltr;baseline-shift:baseline;text-anchor:start;white-space:normal;clip-rule:nonzero;display:inline;overflow:visible;visibility:visible;opacity:1;isolation:auto;mix-blend-mode:normal;color-interpolation:sRGB;color-interpolation-filters:linearRGB;solid-color:#000000;solid-opacity:1;fill:#73d216;fill-opacity:1;fill-rule:nonzero;stroke:#4e9a06;stroke-width:0.5;stroke-linecap:butt;stroke-linejoin:miter;stroke-miterlimit:4;stroke-dasharray:none;stroke-dashoffset:0;stroke-opacity:1;color-rendering:auto;image-rendering:auto;shape-rendering:auto;text-rendering:auto;enable-background:accumulate"
             inkscape:connector-curvature="0" />
        </g>
      </g>
      <rect
         y="1036.3622"
         x="0"
         height="16"
         width="16"
         id="rect3999-8"
         style="color:#000000;clip-rule:nonzero;display:inline;overflow:visible;visibility:visible;opacity:1;isolation:auto;mix-blend-mode:normal;color-interpolation:sRGB;color-interpolation-filters:linearRGB;solid-color:#000000;solid-opacity:1;fill:none;fill-opacity:1;fill-rule:nonzero;stroke:none;stroke-width:0.10246458;stroke-linecap:round;stroke-linejoin:round;stroke-miterlimit:4;stroke-dasharray:none;stroke-dashoffset:0;stroke-opacity:1;color-rendering:auto;image-rendering:auto;shape-rendering:auto;text-rendering:auto;enable-background:accumulate" />
    </g>
  </g>
</svg>
